X:545
L:1/8
M:4/4
K:C
 BEA Dec |[M:6/8][K:G]SOSOO .!fermata!PMTCO(Mg/f/) | ecA fed | ecA A2 f | ecA gfe | dBG G2 (g/f/) | 
 ecA fed | ecA A2 f | gag gfe | dBG G2 :: (A/B/) | A2 a aea | aea ae^c | A^ce agf | gdB GAB | 
 A2 a aea | aea aef | gag gfe | dBG G2 :|

